X: 456
T: Pao yangyu
%%abc-version 2.0
%%abcx-abcm2ps-target-version 5.9.1 (29 Sep 2008)
%%abc-creator hum2abc beta
%%abcx-conversion-date 2013/10/02 07:52:30
%%abc-edited-by Helmut Schaffrath
%%humdrum-veritas 3572853792
%%humdrum-veritas-data 1243173171
%%continueall 1
%%barnumbers 0
L: 1/16
M: 3/4
K: C
z2 A2 e2 d c [I:setbarnb 1]| 
d2A6 | 
c2 B A G2 E GA4 | 
[M:2/4]z2 A2 e2 d c | 
d2E6 | 
[M:3/4]G G G A E D C2D4 | 
[M:2/4]z2 A2 e2 d c | 
d2A6 | 
[M:3/4]c2 B A G2 E GA4 | 
[M:2/4]z2 A2 e d c A | 
c2E6 | 
G G G A E D C2 | 
D8 |]  



